img/icon-page.svg

<svg fill="none" height="24" viewBox="0 0 24 24" width="24" xmlns="http://www.w3.org/2000/svg"><g stroke="#fff" stroke-linecap="round" stroke-linejoin="round" stroke-width="2"><path d="m20.2133 8.33275h-4.5467c-.736 0-1.3333-.59733-1.3333-1.33333v-4.53067"/><path d="m3.66675 18.9987v-14c0-1.47334 1.19333-2.66667 2.66666-2.66667h7.44799c.3533 0 .6933.14.9427.39067l5.2186 5.21866c.2507.25067.3907.58934.3907.94267v10.11467c0 1.4733-1.1933 2.6667-2.6667 2.6667h-11.33329c-1.47333 0-2.66666-1.1934-2.66666-2.6667z"/></g></svg>

<svg width="24" height="24" viewBox="0 0 24 24" fill="none" xmlns="http://www.w3.org/2000/svg">
<path d="M20.2133 8.33275H15.6666C14.9306 8.33275 14.3333 7.73542 14.3333 6.99942V2.46875" stroke="white" stroke-width="2" stroke-linecap="round" stroke-linejoin="round"/>
<path d="M3.66675 18.9987V4.9987C3.66675 3.52536 4.86008 2.33203 6.33341 2.33203H13.7814C14.1347 2.33203 14.4747 2.47203 14.7241 2.7227L19.9427 7.94136C20.1934 8.19203 20.3334 8.5307 20.3334 8.88403V18.9987C20.3334 20.472 19.1401 21.6654 17.6667 21.6654H6.33341C4.86008 21.6654 3.66675 20.472 3.66675 18.9987Z" stroke="white" stroke-width="2" stroke-linecap="round" stroke-linejoin="round"/>
</svg>
